svg/emoji_u1f52e.svg

<svg enable-background="new 0 0 128 128" viewBox="0 0 128 128" xmlns="http://www.w3.org/2000/svg" xmlns:xlink="http://www.w3.org/1999/xlink"><path d="m99.3 106.61-7.3-14.61h-56l-7.3 14.61c-0.58 1.17-0.8 2.49-0.55 3.77 0.33 1.73 1.28 4.03 3.86 5.62 4.63 2.86 15.33 7.88 32 8 15.73-0.12 27.37-5.14 32-8 2.58-1.59 3.52-3.89 3.86-5.62 0.24-1.28 0.02-2.6-0.57-3.77z" fill="#7E57C2"/><linearGradient id="d" x1="64" x2="64" y1="94" y2="117.67" gradientUnits="userSpaceOnUse"><stop stop-color="#512DA8" offset="0"/><stop stop-color="#512DA8" stop-opacity="0" offset=".9936"/></linearGradient><path d="m99.3 106.61-7.3-14.61h-56l-7.3 14.61c-0.58 1.17-0.8 2.49-0.55 3.77 0.33 1.73 1.28 4.03 3.86 5.62 4.63 2.86 15.33 7.88 32 8 15.73-0.12 27.37-5.14 32-8 2.58-1.59 3.52-3.89 3.86-5.62 0.24-1.28 0.02-2.6-0.57-3.77z" fill="url(#d)"/><defs><path id="c" d="m99.3 106.61-7.3-14.61h-56l-7.3 14.61c-0.58 1.17-0.8 2.49-0.55 3.77 0.33 1.73 1.28 4.03 3.86 5.62 4.63 2.86 15.33 7.88 32 8 15.73-0.12 27.37-5.14 32-8 2.58-1.59 3.52-3.89 3.86-5.62 0.24-1.28 0.02-2.6-0.57-3.77z"/></defs><clipPath><use xlink:href="#c"/></clipPath><g opacity=".2"><path d="m90.15 95 6.48 12.95c0.3 0.61 0.41 1.27 0.29 1.86-0.31 1.58-1.14 2.8-2.49 3.64-1.23 0.76-12.5 7.41-30.4 7.55-16.65-0.12-26.84-5.32-30.44-7.55-1.35-0.83-2.18-2.06-2.49-3.64-0.12-0.6-0.01-1.26 0.29-1.86l6.46-12.95h52.3m1.85-3h-56l-7.3 14.61c-0.58 1.17-0.8 2.49-0.55 3.77 0.33 1.73 1.28 4.03 3.86 5.62 4.63 2.86 15.33 7.88 32 8 15.73-0.12 27.37-5.14 32-8 2.58-1.59 3.52-3.89 3.86-5.62 0.25-1.28 0.03-2.61-0.55-3.77l-7.32-14.61z" fill="#424242"/></g><radialGradient id="b" cx="64" cy="53.925" r="54.106" gradientUnits="userSpaceOnUse"><stop stop-color="#81D4FA" offset="0"/><stop stop-color="#77D1F9" offset=".202"/><stop stop-color="#5DC8F8" offset=".5425"/><stop stop-color="#4FC3F7" offset=".6923"/><stop stop-color="#29B6F6" offset=".9936"/></radialGradient><circle cx="64" cy="55" r="51" fill="url(#b)"/><linearGradient id="a" x1="64" x2="64" y1="106.1" y2="82.907" gradientUnits="userSpaceOnUse"><stop stop-color="#512DA8" stop-opacity="0" offset="0"/><stop stop-color="#512DA8" offset=".7814"/><stop stop-color="#512DA8" offset=".9936"/></linearGradient><path d="m92.68 93.36c-0.35-0.7-0.56-1.44-0.82-2.18-1.44-4.03-13.36-7.18-27.86-7.18s-26.42 3.15-27.86 7.18c-0.26 0.73-0.48 1.48-0.82 2.18l-1.41 2.81c8.44 6.18 18.84 9.83 30.09 9.83s21.65-3.65 30.09-9.83l-1.41-2.81z" fill="url(#a)" opacity=".4"/><g opacity=".2"><path d="m64 7c26.47 0 48 21.53 48 48s-21.53 48-48 48-48-21.53-48-48 21.53-48 48-48m0-3c-28.17 0-51 22.83-51 51s22.83 51 51 51 51-22.83 51-51-22.83-51-51-51z" fill="#424242"/></g><path d="m94.59 65.68c-4.88-0.37-8.72-4.43-8.76-9.4-0.04 4.97-3.9 9.02-8.78 9.4 4.88 0.37 8.74 4.42 8.78 9.38 0.04-4.96 3.88-9.01 8.76-9.38z" clip-rule="evenodd" fill="#FFF59D" fill-rule="evenodd" opacity=".6"/><path d="m109.09 54.06c-3.56-0.27-6.37-3.24-6.41-6.86-0.03 3.63-2.84 6.59-6.4 6.86 3.56 0.27 6.37 3.23 6.4 6.86 0.04-3.62 2.84-6.59 6.41-6.86z" clip-rule="evenodd" fill="#FFF59D" fill-rule="evenodd" opacity=".6"/><path d="m99.19 33.56c-5.64-0.54-10.03-5.32-9.98-11.08-0.16 5.75-4.7 10.37-10.38 10.7 5.66 0.54 10.04 5.33 9.98 11.08 0.17-5.74 4.71-10.37 10.38-10.7z" clip-rule="evenodd" fill="#FFF59D" fill-rule="evenodd" opacity=".6"/></svg>

<svg width="128" height="128" style="enable-background:new 0 0 128 128;" xmlns="http://www.w3.org/2000/svg" xmlns:xlink="http://www.w3.org/1999/xlink">
  <g>
    <path d="M99.3,106.61L92,92H64H36l-7.3,14.61c-0.58,1.17-0.8,2.49-0.55,3.77c0.33,1.73,1.28,4.03,3.86,5.62 c4.63,2.86,15.33,7.88,32,8c15.73-0.12,27.37-5.14,32-8c2.58-1.59,3.52-3.89,3.86-5.62C100.11,109.1,99.89,107.78,99.3,106.61z" style="fill:#7E57C2;"/>
    <linearGradient id="SVGID_1_" gradientUnits="userSpaceOnUse" x1="64" x2="64" y1="94" y2="117.6667">
      <stop offset="0" style="stop-color:#512DA8"/>
      <stop offset="0.9936" style="stop-color:#512DA8;stop-opacity:0"/>
    </linearGradient>
    <path d="M99.3,106.61L92,92H64H36l-7.3,14.61c-0.58,1.17-0.8,2.49-0.55,3.77 c0.33,1.73,1.28,4.03,3.86,5.62c4.63,2.86,15.33,7.88,32,8c15.73-0.12,27.37-5.14,32-8c2.58-1.59,3.52-3.89,3.86-5.62 C100.11,109.1,99.89,107.78,99.3,106.61z" style="fill:url(#SVGID_1_);"/>
    <g>
      <defs>
        <path id="SVGID_2_" d="M99.3,106.61L92,92H64H36l-7.3,14.61c-0.58,1.17-0.8,2.49-0.55,3.77c0.33,1.73,1.28,4.03,3.86,5.62 c4.63,2.86,15.33,7.88,32,8c15.73-0.12,27.37-5.14,32-8c2.58-1.59,3.52-3.89,3.86-5.62C100.11,109.1,99.89,107.78,99.3,106.61z"/>
      </defs>
      <clipPath id="SVGID_3_">
        <use style="overflow:visible;" xlink:href="#SVGID_2_"/>
      </clipPath>
    </g>
    <g style="opacity:0.2;">
      <path d="M90.15,95l6.48,12.95c0.3,0.61,0.41,1.27,0.29,1.86c-0.31,1.58-1.14,2.8-2.49,3.64 c-1.23,0.76-12.5,7.41-30.4,7.55c-16.65-0.12-26.84-5.32-30.44-7.55c-1.35-0.83-2.18-2.06-2.49-3.64 c-0.12-0.6-0.01-1.26,0.29-1.86L37.85,95H64H90.15 M92,92H64H36l-7.3,14.61c-0.58,1.17-0.8,2.49-0.55,3.77 c0.33,1.73,1.28,4.03,3.86,5.62c4.63,2.86,15.33,7.88,32,8c15.73-0.12,27.37-5.14,32-8c2.58-1.59,3.52-3.89,3.86-5.62 c0.25-1.28,0.03-2.61-0.55-3.77L92,92L92,92z" style="fill:#424242;"/>
    </g>
    <g>
      <radialGradient id="SVGID_4_" cx="64" cy="53.9251" gradientUnits="userSpaceOnUse" r="54.1062">
        <stop offset="0" style="stop-color:#81D4FA"/>
        <stop offset="0.202" style="stop-color:#77D1F9"/>
        <stop offset="0.5425" style="stop-color:#5DC8F8"/>
        <stop offset="0.6923" style="stop-color:#4FC3F7"/>
        <stop offset="0.9936" style="stop-color:#29B6F6"/>
      </radialGradient>
      <circle cx="64" cy="55" r="51" style="fill:url(#SVGID_4_);"/>
      <linearGradient id="SVGID_5_" gradientUnits="userSpaceOnUse" x1="64" x2="64" y1="106.0952" y2="82.9073">
        <stop offset="0" style="stop-color:#512DA8;stop-opacity:0"/>
        <stop offset="0.7814" style="stop-color:#512DA8"/>
        <stop offset="0.9936" style="stop-color:#512DA8"/>
      </linearGradient>
      <path d="M92.68,93.36c-0.35-0.7-0.56-1.44-0.82-2.18C90.42,87.15,78.5,84,64,84 c-14.5,0-26.42,3.15-27.86,7.18c-0.26,0.73-0.48,1.48-0.82,2.18l-1.41,2.81C42.35,102.35,52.75,106,64,106s21.65-3.65,30.09-9.83 L92.68,93.36z" style="opacity:0.4;fill:url(#SVGID_5_);"/>
      <g style="opacity:0.2;">
        <path d="M64,7c26.47,0,48,21.53,48,48s-21.53,48-48,48S16,81.47,16,55S37.53,7,64,7 M64,4 C35.83,4,13,26.83,13,55s22.83,51,51,51s51-22.83,51-51S92.17,4,64,4L64,4z" style="fill:#424242;"/>
      </g>
    </g>
  </g>
  <path d="M94.59,65.68c-4.88-0.37-8.72-4.43-8.76-9.4 c-0.04,4.97-3.9,9.02-8.78,9.4c4.88,0.37,8.74,4.42,8.78,9.38C85.87,70.1,89.71,66.05,94.59,65.68L94.59,65.68z" style="opacity:0.6;fill-rule:evenodd;clip-rule:evenodd;fill:#FFF59D;"/>
  <path d="M109.09,54.06c-3.56-0.27-6.37-3.24-6.41-6.86 c-0.03,3.63-2.84,6.59-6.4,6.86c3.56,0.27,6.37,3.23,6.4,6.86C102.72,57.3,105.52,54.33,109.09,54.06L109.09,54.06z" style="opacity:0.6;fill-rule:evenodd;clip-rule:evenodd;fill:#FFF59D;"/>
  <path d="M99.19,33.56c-5.64-0.54-10.03-5.32-9.98-11.08 c-0.16,5.75-4.7,10.37-10.38,10.7c5.66,0.54,10.04,5.33,9.98,11.08C88.98,38.52,93.52,33.89,99.19,33.56L99.19,33.56z" style="opacity:0.6;fill-rule:evenodd;clip-rule:evenodd;fill:#FFF59D;"/>
</svg>
